icons/FileEuro_2_filled.svg

<svg width="24" height="24" viewBox="0 0 24 24" fill="none" xmlns="http://www.w3.org/2000/svg">
<path fill-rule="evenodd" clip-rule="evenodd" d="M13.25,2.25v5.25c0,0.69036 0.5596,1.25 1.25,1.25h5.25v2.2903c-1.005,-0.1083 -2.027,0.0018 -2.9943,0.3292c-1.0009,0.3388 -1.9071,0.8981 -2.6547,1.6305h-6.101c-0.41421,0 -0.75,0.3358 -0.75,0.75c0,0.4142 0.33579,0.75 0.75,0.75h4.9378c-0.1388,0.2405 -0.263,0.4886 -0.3719,0.7427c-0.4043,0.1739 -0.7627,0.434 -1.052,0.7573h-3.5139c-0.41421,0 -0.75,0.3358 -0.75,0.75c0,0.4142 0.33579,0.75 0.75,0.75h2.7915c-0.0273,0.1626 -0.0415,0.3297 -0.0415,0.5c0,1.2364 0.7479,2.298 1.8159,2.7573c0.1471,0.3432 0.3219,0.6752 0.5233,0.9927h-7.0892c-0.9665,0 -1.75,-0.7835 -1.75,-1.75v-16c0,-0.9665 0.7835,-1.75 1.75,-1.75zM19.2374,7.17678c0.0238,0.0238 0.0469,0.04822 0.0692,0.07322h-4.5566v-4.55657c0.025,0.02228 0.0494,0.04533 0.0732,0.06913zM8,10c-0.41421,0 -0.75,0.3358 -0.75,0.75c0,0.4142 0.33579,0.75 0.75,0.75h4c0.4142,0 0.75,-0.3358 0.75,-0.75c0,-0.4142 -0.3358,-0.75 -0.75,-0.75zM19.9421,14.8895c-0.6485,-0.1964 -1.3422,-0.1852 -1.9841,0.0321c-0.6418,0.2172 -1.1997,0.6297 -1.5956,1.1796c-0.2497,0.3469 -0.4271,0.7376 -0.5247,1.1488h3.215c0.4142,0 0.75,0.3358 0.75,0.75c0,0.4142 -0.3358,0.75 -0.75,0.75h-3.215c0.0958,0.4039 0.2686,0.788 0.5115,1.1304c0.3921,0.5526 0.947,0.969 1.5874,1.1907c0.6403,0.2217 1.3339,0.2378 1.9837,0.0459c0.6499,-0.1919 1.2236,-0.5821 1.6407,-1.1161c0.2551,-0.3264 0.7264,-0.3843 1.0528,-0.1293c0.3264,0.2551 0.3843,0.7264 0.1293,1.0528c-0.6098,0.7804 -1.4482,1.3507 -2.398,1.6312c-0.9498,0.2804 -1.9635,0.257 -2.8994,-0.0671c-0.9358,-0.3241 -1.747,-0.9325 -2.3199,-1.7403c-0.4238,-0.5974 -0.7016,-1.2817 -0.8162,-1.9982h-0.5596c-0.4142,0 -0.75,-0.3358 -0.75,-0.75c0,-0.4142 0.3358,-0.75 0.75,-0.75h0.5596c0.1163,-0.7276 0.401,-1.4217 0.8354,-2.0252c0.5787,-0.8037 1.394,-1.4065 2.3321,-1.724c0.9381,-0.3176 1.9519,-0.3339 2.8998,-0.0469c0.9478,0.2871 1.7822,0.8633 2.3865,1.6479c0.2527,0.3282 0.1916,0.7991 -0.1366,1.0518c-0.3282,0.2528 -0.7991,0.1916 -1.0518,-0.1366c-0.4135,-0.5368 -0.9844,-0.931 -1.6329,-1.1275z" fill="#002B51"/>
</svg>

<svg width="24" height="24" viewBox="0 0 24 24" fill="none" xmlns="http://www.w3.org/2000/svg">
<path fill-rule="evenodd" clip-rule="evenodd" d="M6 2.25C5.0335 2.25 4.25 3.0335 4.25 4V20C4.25 20.9665 5.0335 21.75 6 21.75H13.0892C12.8878 21.4325 12.713 21.1005 12.5659 20.7573C11.4979 20.298 10.75 19.2364 10.75 18C10.75 17.8297 10.7642 17.6626 10.7915 17.5H8C7.58579 17.5 7.25 17.1642 7.25 16.75C7.25 16.3358 7.58579 16 8 16H11.5139C11.8032 15.6767 12.1616 15.4166 12.5659 15.2427C12.6748 14.9886 12.799 14.7405 12.9378 14.5H8C7.58579 14.5 7.25 14.1642 7.25 13.75C7.25 13.3358 7.58579 13 8 13H14.101C14.8486 12.2676 15.7548 11.7083 16.7557 11.3695C17.723 11.0421 18.745 10.932 19.75 11.0403V8.75H14.5C13.8096 8.75 13.25 8.19036 13.25 7.5V2.25H6ZM19.2374 7.17678C19.2612 7.20058 19.2843 7.225 19.3066 7.25H14.75V2.69343C14.775 2.71571 14.7994 2.73876 14.8232 2.76256L19.2374 7.17678ZM8 10C7.58579 10 7.25 10.3358 7.25 10.75C7.25 11.1642 7.58579 11.5 8 11.5H12C12.4142 11.5 12.75 11.1642 12.75 10.75C12.75 10.3358 12.4142 10 12 10H8ZM19.9421 14.8895C19.2936 14.6931 18.5999 14.7043 17.958 14.9216C17.3162 15.1388 16.7583 15.5513 16.3624 16.1012C16.1127 16.4481 15.9353 16.8388 15.8377 17.25H19.0527C19.4669 17.25 19.8027 17.5858 19.8027 18C19.8027 18.4142 19.4669 18.75 19.0527 18.75H15.8377C15.9335 19.1539 16.1063 19.538 16.3492 19.8804C16.7413 20.433 17.2962 20.8494 17.9366 21.0711C18.5769 21.2928 19.2705 21.3089 19.9203 21.117C20.5702 20.9251 21.1439 20.5349 21.561 20.0009C21.8161 19.6745 22.2874 19.6166 22.6138 19.8716C22.9402 20.1267 22.9981 20.598 22.7431 20.9244C22.1333 21.7048 21.2949 22.2751 20.3451 22.5556C19.3953 22.836 18.3816 22.8126 17.4457 22.4885C16.5099 22.1644 15.6987 21.556 15.1258 20.7482C14.702 20.1508 14.4242 19.4665 14.3096 18.75H13.75C13.3358 18.75 13 18.4142 13 18C13 17.5858 13.3358 17.25 13.75 17.25H14.3096C14.4259 16.5224 14.7106 15.8283 15.145 15.2248C15.7237 14.4211 16.539 13.8183 17.4771 13.5008C18.4152 13.1832 19.429 13.1669 20.3769 13.4539C21.3247 13.741 22.1591 14.3172 22.7634 15.1018C23.0161 15.43 22.955 15.9009 22.6268 16.1536C22.2986 16.4064 21.8277 16.3452 21.575 16.017C21.1615 15.4802 20.5906 15.086 19.9421 14.8895Z" fill="#002B51"/>
</svg>
